doc/logo.svg

<svg fill="none" height="321" viewBox="0 0 350 321" width="350" xmlns="http://www.w3.org/2000/svg"><path d="m102.249.584028c9.46 0 19.566 3.440102 30.316 10.320372 10.536 6.6652 25.049 18.4907 43.539 35.4763 31.821-26.661 48.795-32.6665 65.135-32.6665 10.536 0 19.566 2.9026 27.091 8.7078 13.863 10.6007 16.175 34.8103 6.463 50.7272-7.74 12.6855-17.846 26.3385-30.316 40.9588 28.381 32.251 44.233 55.457 44.233 71.368 0 11.395-3.548 20.103-10.643 26.123-7.31 6.02-16.448 9.03-27.413 9.03-16.556 0-42.514-12.562-74.55-39.438-18.275 16.125-32.681 27.306-43.216 33.541-10.751 6.235-20.964 9.353-30.639 9.353-12.9004 0-22.8983-4.193-29.9935-12.578-7.3103-8.601-10.9654-18.706-10.9654-30.316 0-7.526 1.075-14.083 3.2251-19.674 2.1501-5.59 6.1277-11.825 11.9329-18.705 5.8052-7.096 15.0506-16.878 27.7359-29.349-12.2553-12.47-21.2856-22.4682-27.0909-29.9934-6.0202-7.7403-10.1053-14.5131-12.2554-20.3183-2.3651-5.8052-3.5476-12.2554-3.5476-19.3507 0-7.5253 1.6125-14.513 4.8376-20.9632 3.2252-6.6653 7.9553-12.0405 14.1906-16.12565 6.2352-4.08515 13.5455-6.127721 21.9307-6.127722z" fill="#0ba1a1"/><path d="m93.4288 310.271c-8.9749 0-15.5528-6.407-15.5528-15.245 0-8.837 6.5779-15.245 15.5528-15.245 9.9782 0 16.6122 7.623 15.2742 17.842h-22.6883c.8919 3.424 3.6234 5.468 7.4141 5.468 2.5642 0 4.794-.994 5.9647-2.541h8.6405c-2.063 5.965-7.749 9.721-14.6052 9.721zm-7.3583-18.006h14.8285c-.892-3.204-3.5123-5.303-7.4702-5.303-3.7349 0-6.4107 2.044-7.3583 5.303z" fill="#132032"/><path d="m41.8882 274.59c1.6658 0 3.4451.606 5.338 1.817 1.8551 1.174 4.4105 3.256 7.6663 6.247 5.6031-4.694 8.5917-5.752 11.4689-5.752 1.8551 0 3.4451.511 4.7702 1.533 2.4408 1.867 2.848 6.13 1.1379 8.932-1.3629 2.234-3.1423 4.638-5.338 7.212 4.9972 5.679 7.7885 9.765 7.7885 12.567 0 2.006-.6247 3.539-1.874 4.599-1.2872 1.06-2.8961 1.59-4.8269 1.59-2.9151 0-7.4857-2.212-13.1266-6.944-3.2179 2.839-5.7544 4.808-7.6095 5.906-1.8929 1.098-3.6912 1.647-5.3948 1.647-2.2715 0-4.0319-.738-5.2812-2.215-1.2872-1.514-1.9308-3.294-1.9308-5.338 0-1.325.1893-2.48.5679-3.464s1.079-2.082 2.1011-3.294c1.0222-1.249 2.6501-2.972 4.8837-5.167-2.1579-2.196-3.7479-3.956-4.7701-5.282-1.06-1.362-1.7793-2.555-2.1579-3.577-.4165-1.022-.6247-2.158-.6247-3.407 0-1.325.284-2.556.8518-3.692.5679-1.173 1.4008-2.12 2.4987-2.839s2.3851-1.079 3.8615-1.079z" fill="#0ba1a1"/><g fill="#132032"><path d="m16.0697 310.271c-8.97496 0-15.552856-6.407-15.552856-15.245 0-8.837 6.577896-15.245 15.552856-15.245 9.9783 0 16.6119 7.623 15.2741 17.842h-22.6882c.89191 3.424 3.6234 5.468 7.4141 5.468 2.5642 0 4.794-.994 5.9647-2.541h8.6404c-2.0625 5.965-7.7485 9.721-14.6051 9.721zm-7.35836-18.006h14.82816c-.8919-3.204-3.5119-5.303-7.4698-5.303-3.7349 0-6.4107 2.044-7.35836 5.303z"/><path d="m334.05 320.077c-2.809 0-5.125-.323-6.948-.968-1.784-.646-3.208-1.47-4.271-2.474-1.063-.968-1.841-1.936-2.335-2.904s-.816-1.793-.968-2.474c-.114-.645-.171-.968-.171-.968h8.429s.057.161.171.484c.151.359.436.753.854 1.183.417.466 1.025.861 1.822 1.183.835.359 1.937.538 3.303.538 2.354 0 4.082-.627 5.183-1.882 1.139-1.255 1.708-2.904 1.708-4.948v-3.011h-.398c-.38.573-.949 1.201-1.709 1.882-.759.681-1.727 1.255-2.904 1.721s-2.601.699-4.272.699c-2.24 0-4.195-.394-5.865-1.183-1.671-.825-3.076-1.918-4.215-3.281-1.101-1.362-1.936-2.886-2.506-4.571-.531-1.685-.797-3.424-.797-5.216 0-1.757.266-3.478.797-5.163.57-1.721 1.405-3.263 2.506-4.625 1.139-1.362 2.544-2.438 4.215-3.227 1.67-.824 3.625-1.237 5.865-1.237 1.671 0 3.095.251 4.272.753 1.177.466 2.145 1.04 2.904 1.721.797.646 1.367 1.273 1.709 1.882h.398v-3.818h8.657v26.674c0 2.367-.551 4.554-1.652 6.561-1.101 2.008-2.79 3.621-5.068 4.84s-5.183 1.829-8.714 1.829zm-.114-18.392c1.595 0 2.905-.377 3.93-1.13 1.063-.753 1.86-1.721 2.392-2.904.531-1.219.797-2.474.797-3.764 0-1.327-.266-2.582-.797-3.765-.532-1.183-1.329-2.151-2.392-2.904-1.025-.753-2.335-1.129-3.93-1.129-1.556 0-2.866.376-3.929 1.129-1.025.753-1.804 1.721-2.335 2.904-.532 1.183-.798 2.438-.798 3.765 0 1.29.266 2.545.798 3.764.531 1.183 1.31 2.151 2.335 2.904 1.063.753 2.373 1.13 3.929 1.13z"/><path d="m292.065 292.823v17.455h-8.759v-30.193h8.348v5.327h.37c.699-1.756 1.871-3.145 3.516-4.167 1.644-1.036 3.639-1.553 5.983-1.553 2.193 0 4.105.458 5.736 1.376 1.631.917 2.899 2.227 3.804 3.931.904 1.691 1.357 3.709 1.357 6.054v19.225h-8.759v-17.731c.014-1.847-.48-3.289-1.48-4.324-1.001-1.049-2.379-1.573-4.133-1.573-1.179 0-2.221.243-3.125.728-.891.484-1.59 1.192-2.097 2.122-.494.918-.747 2.025-.761 3.323z"/><path d="m266.028 272.725c0-2.719 2.04-4.758 4.928-4.758 2.832 0 4.871 2.039 4.871 4.758 0 2.718-2.039 4.701-4.871 4.701-2.888 0-4.928-1.983-4.928-4.701z"/><path d="m238.687 292.823v17.455h-8.759v-30.193h8.348v5.327h.37c.699-1.756 1.871-3.145 3.515-4.167 1.645-1.036 3.64-1.553 5.984-1.553 2.193 0 4.105.458 5.736 1.376 1.631.917 2.899 2.227 3.804 3.931.904 1.691 1.357 3.709 1.357 6.054v19.225h-8.759v-17.731c.014-1.847-.48-3.289-1.48-4.324-1.001-1.049-2.379-1.573-4.133-1.573-1.179 0-2.221.243-3.125.728-.891.484-1.59 1.192-2.098 2.122-.493.918-.747 2.025-.76 3.323z"/><path d="m205.092 310.278v-30.02h7.534v3.341c2.039-2.492 5.211-3.795 8.496-3.795 1.133 0 2.322.17 3.455.454v7.476c-1.246-.226-2.379-.396-3.455-.396-4.928 0-7.93 2.888-7.93 7.816v15.124z"/><path d="m179.787 310.902c-9.006 0-15.124-6.797-15.124-15.633 0-9.176 6.401-15.634 15.124-15.634 3.851 0 7.476 1.36 10.025 3.625v-3.002h7.024v30.021h-7.024v-3.002c-2.605 2.265-6.287 3.625-10.025 3.625zm-6.911-15.633c0 4.701 3.342 8.043 7.987 8.043 4.588 0 7.93-3.342 7.93-8.043 0-4.702-3.342-8.044-7.93-8.044-4.645 0-7.987 3.342-7.987 8.044z"/><path d="m145.011 310.902c-9.119 0-15.803-6.571-15.803-15.633 0-9.063 6.684-15.634 15.803-15.634 10.139 0 16.879 7.817 15.52 18.296h-23.054c.907 3.511 3.682 5.607 7.534 5.607 2.605 0 4.871-1.019 6.06-2.605h8.78c-2.096 6.117-7.873 9.969-14.84 9.969zm-7.477-18.466h15.067c-.906-3.285-3.569-5.437-7.59-5.437-3.795 0-6.514 2.096-7.477 5.437z"/><path d="m122.975 310.278h-8.1v-38.607l8.1-1.042z"/><path d="m274.974 310.272h-8.092v-29.226l8.092-.789z"/></g></svg>

<svg width="350" height="321" viewBox="0 0 350 321" fill="none" xmlns="http://www.w3.org/2000/svg">
<path d="M102.249 0.584028C111.709 0.584028 121.815 4.02413 132.565 10.9044C143.101 17.5696 157.614 29.3951 176.104 46.3807C207.925 19.7197 224.899 13.7142 241.239 13.7142C251.775 13.7142 260.805 16.6168 268.33 22.422C282.193 33.0227 284.505 57.2323 274.793 73.1492C267.053 85.8347 256.947 99.4877 244.477 114.108C272.858 146.359 288.71 169.565 288.71 185.476C288.71 196.871 285.162 205.579 278.067 211.599C270.757 217.619 261.619 220.629 250.654 220.629C234.098 220.629 208.14 208.067 176.104 181.191C157.829 197.316 143.423 208.497 132.888 214.732C122.137 220.967 111.924 224.085 102.249 224.085C89.3486 224.085 79.3507 219.892 72.2555 211.507C64.9452 202.906 61.2901 192.801 61.2901 181.191C61.2901 173.665 62.3651 167.108 64.5152 161.517C66.6653 155.927 70.6429 149.692 76.4481 142.812C82.2533 135.716 91.4987 125.934 104.184 113.463C91.9287 100.993 82.8984 90.9948 77.0931 83.4696C71.0729 75.7293 66.9878 68.9565 64.8377 63.1513C62.4726 57.3461 61.2901 50.8959 61.2901 43.8006C61.2901 36.2753 62.9026 29.2876 66.1277 22.8374C69.3529 16.1721 74.083 10.7969 80.3183 6.71175C86.5535 2.6266 93.8638 0.584029 102.249 0.584028Z" fill="#0BA1A1"/>
<path d="M93.4288 310.271C84.4539 310.271 77.876 303.864 77.876 295.026C77.876 286.189 84.4539 279.781 93.4288 279.781C103.407 279.781 110.041 287.404 108.703 297.623H86.0147C86.9066 301.047 89.6381 303.091 93.4288 303.091C95.993 303.091 98.2228 302.097 99.3935 300.55H108.034C105.971 306.515 100.285 310.271 93.4288 310.271ZM86.0705 292.265H100.899C100.007 289.061 97.3867 286.962 93.4288 286.962C89.6939 286.962 87.0181 289.006 86.0705 292.265Z" fill="#132032"/>
<path d="M41.8882 274.59C43.554 274.59 45.3333 275.196 47.2262 276.407C49.0813 277.581 51.6367 279.663 54.8925 282.654C60.4956 277.96 63.4842 276.902 66.3614 276.902C68.2165 276.902 69.8065 277.413 71.1316 278.435C73.5724 280.302 73.9796 284.565 72.2695 287.367C70.9066 289.601 69.1272 292.005 66.9315 294.579C71.9287 300.258 74.72 304.344 74.72 307.146C74.72 309.152 74.0953 310.685 72.846 311.745C71.5588 312.805 69.9499 313.335 68.0191 313.335C65.104 313.335 60.5334 311.123 54.8925 306.391C51.6746 309.23 49.1381 311.199 47.283 312.297C45.3901 313.395 43.5918 313.944 41.8882 313.944C39.6167 313.944 37.8563 313.206 36.607 311.729C35.3198 310.215 34.6762 308.435 34.6762 306.391C34.6762 305.066 34.8655 303.911 35.2441 302.927C35.6227 301.943 36.3231 300.845 37.3452 299.633C38.3674 298.384 39.9953 296.661 42.2289 294.466C40.071 292.27 38.481 290.51 37.4588 289.184C36.3988 287.822 35.6795 286.629 35.3009 285.607C34.8844 284.585 34.6762 283.449 34.6762 282.2C34.6762 280.875 34.9602 279.644 35.528 278.508C36.0959 277.335 36.9288 276.388 38.0267 275.669C39.1246 274.95 40.4118 274.59 41.8882 274.59Z" fill="#0BA1A1"/>
<path d="M16.0697 310.271C7.09474 310.271 0.516844 303.864 0.516844 295.026C0.516844 286.189 7.09474 279.781 16.0697 279.781C26.048 279.781 32.6816 287.404 31.3438 297.623H8.6556C9.54751 301.047 12.279 303.091 16.0697 303.091C18.6339 303.091 20.8637 302.097 22.0344 300.55H30.6748C28.6123 306.515 22.9263 310.271 16.0697 310.271ZM8.71134 292.265H23.5395C22.6476 289.061 20.0276 286.962 16.0697 286.962C12.3348 286.962 9.659 289.006 8.71134 292.265Z" fill="#132032"/>
<path d="M334.05 320.077C331.241 320.077 328.925 319.754 327.102 319.109C325.318 318.463 323.894 317.639 322.831 316.635C321.768 315.667 320.99 314.699 320.496 313.731C320.002 312.763 319.68 311.938 319.528 311.257C319.414 310.612 319.357 310.289 319.357 310.289H327.786C327.786 310.289 327.843 310.45 327.957 310.773C328.108 311.132 328.393 311.526 328.811 311.956C329.228 312.422 329.836 312.817 330.633 313.139C331.468 313.498 332.57 313.677 333.936 313.677C336.29 313.677 338.018 313.05 339.119 311.795C340.258 310.54 340.827 308.891 340.827 306.847V303.836H340.429C340.049 304.409 339.48 305.037 338.72 305.718C337.961 306.399 336.993 306.973 335.816 307.439C334.639 307.905 333.215 308.138 331.544 308.138C329.304 308.138 327.349 307.744 325.679 306.955C324.008 306.13 322.603 305.037 321.464 303.674C320.363 302.312 319.528 300.788 318.958 299.103C318.427 297.418 318.161 295.679 318.161 293.887C318.161 292.13 318.427 290.409 318.958 288.724C319.528 287.003 320.363 285.461 321.464 284.099C322.603 282.737 324.008 281.661 325.679 280.872C327.349 280.048 329.304 279.635 331.544 279.635C333.215 279.635 334.639 279.886 335.816 280.388C336.993 280.854 337.961 281.428 338.72 282.109C339.517 282.755 340.087 283.382 340.429 283.991H340.827V280.173H349.484V306.847C349.484 309.214 348.933 311.401 347.832 313.408C346.731 315.416 345.042 317.029 342.764 318.248C340.486 319.467 337.581 320.077 334.05 320.077ZM333.936 301.685C335.531 301.685 336.841 301.308 337.866 300.555C338.929 299.802 339.726 298.834 340.258 297.651C340.789 296.432 341.055 295.177 341.055 293.887C341.055 292.56 340.789 291.305 340.258 290.122C339.726 288.939 338.929 287.971 337.866 287.218C336.841 286.465 335.531 286.089 333.936 286.089C332.38 286.089 331.07 286.465 330.007 287.218C328.982 287.971 328.203 288.939 327.672 290.122C327.14 291.305 326.874 292.56 326.874 293.887C326.874 295.177 327.14 296.432 327.672 297.651C328.203 298.834 328.982 299.802 330.007 300.555C331.07 301.308 332.38 301.685 333.936 301.685Z" fill="#132032"/>
<path d="M292.065 292.823V310.278H283.306V280.085H291.654V285.412H292.024C292.723 283.656 293.895 282.267 295.54 281.245C297.184 280.209 299.179 279.692 301.523 279.692C303.716 279.692 305.628 280.15 307.259 281.068C308.89 281.985 310.158 283.295 311.063 284.999C311.967 286.69 312.42 288.708 312.42 291.053V310.278H303.661V292.547C303.675 290.7 303.181 289.258 302.181 288.223C301.18 287.174 299.802 286.65 298.048 286.65C296.869 286.65 295.827 286.893 294.923 287.378C294.032 287.862 293.333 288.57 292.826 289.5C292.332 290.418 292.079 291.525 292.065 292.823Z" fill="#132032"/>
<path d="M266.028 272.725C266.028 270.006 268.068 267.967 270.956 267.967C273.788 267.967 275.827 270.006 275.827 272.725C275.827 275.443 273.788 277.426 270.956 277.426C268.068 277.426 266.028 275.443 266.028 272.725Z" fill="#132032"/>
<path d="M238.687 292.823V310.278H229.928V280.085H238.276V285.412H238.646C239.345 283.656 240.517 282.267 242.161 281.245C243.806 280.209 245.801 279.692 248.145 279.692C250.338 279.692 252.25 280.15 253.881 281.068C255.512 281.985 256.78 283.295 257.685 284.999C258.589 286.69 259.042 288.708 259.042 291.053V310.278H250.283V292.547C250.297 290.7 249.803 289.258 248.803 288.223C247.802 287.174 246.424 286.65 244.67 286.65C243.491 286.65 242.449 286.893 241.545 287.378C240.654 287.862 239.955 288.57 239.447 289.5C238.954 290.418 238.7 291.525 238.687 292.823Z" fill="#132032"/>
<path d="M205.092 310.278V280.258H212.626V283.599C214.665 281.107 217.837 279.804 221.122 279.804C222.255 279.804 223.444 279.974 224.577 280.258V287.734C223.331 287.508 222.198 287.338 221.122 287.338C216.194 287.338 213.192 290.226 213.192 295.154V310.278H205.092Z" fill="#132032"/>
<path d="M179.787 310.902C170.781 310.902 164.663 304.105 164.663 295.269C164.663 286.093 171.064 279.635 179.787 279.635C183.638 279.635 187.263 280.995 189.812 283.26V280.258H196.836V310.279H189.812V307.277C187.207 309.542 183.525 310.902 179.787 310.902ZM172.876 295.269C172.876 299.97 176.218 303.312 180.863 303.312C185.451 303.312 188.793 299.97 188.793 295.269C188.793 290.567 185.451 287.225 180.863 287.225C176.218 287.225 172.876 290.567 172.876 295.269Z" fill="#132032"/>
<path d="M145.011 310.902C135.892 310.902 129.208 304.331 129.208 295.269C129.208 286.206 135.892 279.635 145.011 279.635C155.15 279.635 161.89 287.452 160.531 297.931H137.477C138.384 301.442 141.159 303.538 145.011 303.538C147.616 303.538 149.882 302.519 151.071 300.933H159.851C157.755 307.05 151.978 310.902 145.011 310.902ZM137.534 292.436H152.601C151.695 289.151 149.032 286.999 145.011 286.999C141.216 286.999 138.497 289.095 137.534 292.436Z" fill="#132032"/>
<path d="M122.975 310.278H114.875V271.671L122.975 270.629V310.278Z" fill="#132032"/>
<path d="M274.974 310.272H266.882V281.046L274.974 280.257V310.272Z" fill="#132032"/>
</svg>
